src/svg/device-tablet.svg

<svg version="1.2" baseProfile="tiny" xmlns="http://www.w3.org/2000/svg" width="24" height="24" viewBox="0 0 24 24"><g><path d="M17 4h-9c-.55 0-1 .45-1 1v12c0 .55.45 1 1 1h3.5c0 .553.448 1 1 1s1-.447 1-1h3.5c.55 0 1-.45 1-1v-12c0-.55-.45-1-1-1zm0 13h-9v-12h9v12zM18 1h-11c-1.654 0-3 1.346-3 3v15c0 1.654 1.346 3 3 3h11c1.654 0 3-1.346 3-3v-15c0-1.654-1.346-3-3-3zm1 18c0 .551-.449 1-1 1h-11c-.551 0-1-.449-1-1v-15c0-.551.449-1 1-1h11c.551 0 1 .449 1 1v15z"/></g></svg>

<?xml version="1.0" encoding="iso-8859-1"?>
<!-- Generator: Adobe Illustrator 16.2.1, SVG Export Plug-In . SVG Version: 6.00 Build 0)  -->
<svg version="1.2" baseProfile="tiny" xmlns="http://www.w3.org/2000/svg" xmlns:xlink="http://www.w3.org/1999/xlink" x="0px"
	 y="0px" width="24px" height="24px" viewBox="0 0 24 24" xml:space="preserve">
<g id="Layer_1">
	<path d="M17,4H8C7.45,4,7,4.45,7,5v12c0,0.55,0.45,1,1,1h3.5c0,0.553,0.448,1,1,1s1-0.447,1-1H17c0.55,0,1-0.45,1-1V5
		C18,4.45,17.55,4,17,4z M17,17H8V5h9V17z"/>
	<path d="M18,1H7C5.346,1,4,2.346,4,4v15c0,1.654,1.346,3,3,3h11c1.654,0,3-1.346,3-3V4C21,2.346,19.654,1,18,1z M19,19
		c0,0.551-0.449,1-1,1H7c-0.551,0-1-0.449-1-1V4c0-0.551,0.449-1,1-1h11c0.551,0,1,0.449,1,1V19z"/>
</g>
<g id="nyt_x5F_exporter_x5F_info" display="none">
</g>
</svg>
